images/close-icon.svg

<svg width="58" height="58" viewBox="0 0 58 58" fill="none" xmlns="http://www.w3.org/2000/svg">
<path d="M44.7661 41.5683L31.9759 28.778L44.7661 15.9878L41.5686 12.7902L28.7783 25.5805L15.9881 12.7902L12.7905 15.9878L25.5808 28.778L12.7905 41.5683L15.9881 44.7658L28.7783 31.9756L41.5686 44.7658L44.7661 41.5683Z" fill="white"/>
</svg>

<svg xmlns="http://www.w3.org/2000/svg" width="58" height="58" fill="none" xmlns:v="https://vecta.io/nano"><path d="M44.766 41.568l-12.79-12.79 12.79-12.79-3.197-3.198-12.79 12.79-12.79-12.79-3.198 3.198 12.79 12.79-12.79 12.79 3.198 3.197 12.79-12.79 12.79 12.79 3.197-3.197z" fill="#fff"/></svg>
